src/assets/icons/10-icon-astro.svg

<svg data-hk="0-0" width="57" height="72" viewBox="0 0 57 72" fill="none" xmlns="http://www.w3.org/2000/svg" class="block h-20 " data-astro-cid-j5sqotno="true"><path d="M18.5385 61.3257C15.2904 58.3524 14.3422 52.105 15.6955 47.5789C18.0419 50.4325 21.2931 51.3364 24.6608 51.8467C29.8596 52.6341 34.9653 52.3396 39.7948 49.96C40.3473 49.6876 40.8579 49.3254 41.4616 48.9584C41.9147 50.275 42.0327 51.6042 41.8744 52.957C41.4895 56.2515 39.8523 58.7965 37.2482 60.7257C36.2069 61.4973 35.105 62.1871 34.0295 62.9147C30.7256 65.151 29.8317 67.7731 31.0732 71.5874C31.1027 71.6803 31.129 71.7732 31.1958 72C29.5089 71.2441 28.2767 70.1433 27.3378 68.696C26.3461 67.1684 25.8743 65.4786 25.8495 63.6502C25.8371 62.7604 25.8371 61.8627 25.7176 60.9855C25.4258 58.8469 24.4233 57.8894 22.5347 57.8343C20.5963 57.7776 19.0631 58.9776 18.6565 60.8674C18.6254 61.0123 18.5804 61.1556 18.5354 61.3241L18.5385 61.3257Z" fill="white"></path><path d="M0 46.8248C0 46.8248 9.6182 42.1327 19.2633 42.1327L26.5354 19.5951C26.8076 18.5052 27.6025 17.7645 28.5 17.7645C29.3975 17.7645 30.1924 18.5052 30.4646 19.5951L37.7367 42.1327C49.1599 42.1327 57 46.8248 57 46.8248C57 46.8248 40.6627 2.25578 40.6307 2.16636C40.1618 0.848661 39.3703 0 38.3031 0H18.6986C17.6314 0 16.8718 0.848661 16.3709 2.16636C16.3357 2.2541 0 46.8248 0 46.8248Z" fill="white"></path></svg>

<svg xmlns="http://www.w3.org/2000/svg" width="57" height="72" fill="none" class="block h-20" data-astro-cid-j5sqotno="true" data-hk="0-0"><path fill="#fff" d="M18.54 61.33c-3.25-2.98-4.2-9.23-2.84-13.75 2.34 2.85 5.6 3.76 8.96 4.27 5.2.78 10.3.49 15.13-1.89.56-.27 1.07-.63 1.67-1 .45 1.31.57 2.64.41 4a10.95 10.95 0 0 1-4.62 7.77c-1.04.77-2.15 1.46-3.22 2.18-3.3 2.24-4.2 4.86-2.96 8.68l.13.41a8.69 8.69 0 0 1-3.86-3.3 9.3 9.3 0 0 1-1.5-5.05c0-.89 0-1.79-.12-2.66-.3-2.14-1.3-3.1-3.19-3.16a3.73 3.73 0 0 0-3.87 3.04l-.12.45ZM0 46.82s9.62-4.69 19.26-4.69l7.28-22.53c.27-1.1 1.06-1.84 1.96-1.84.9 0 1.7.75 1.96 1.84l7.28 22.53c11.42 0 19.26 4.7 19.26 4.7L40.63 2.16C40.16.85 39.37 0 38.3 0H18.7c-1.07 0-1.83.85-2.33 2.17L0 46.82Z"/></svg>
